;FLAVOR:RepRap
;TIME:1928
M190 S60.000000
M104 S210.000000
M109 S210.000000
;Sliced at: {day} {date} {time}
;Basic settings: Layer height: 0.1 Walls: 0.8 Fill: {fill_density}
;Print time: {print_time}
;Filament used: {filament_amount}m {filament_weight}g
;Filament cost: {filament_cost}
;M190 S{print_bed_temperature} ;Uncomment to add your own bed temperature line
;M109 S{print_temperature} ;Uncomment to add your own temperature line
G21        ;metric values
G90        ;absolute positioning
M82        ;set extruder to absolute mode
M107       ;start with the fan off
G28 X0 Y0  ;move X/Y to min endstops
G28 Z0     ;move Z to min endstops
G1 F12000 X5 Y10 ;move hotend to front left
G1 Z15.0 F{travel_speed} ;move the platform down 15mm
G92 E0                  ;zero the extruded length
G1 F200 E20              ;extrude 20mm of feed stock FAST
G1 F50 E30              ;extrude 30mm of feed stock SLOW
G92 E0                  ;zero the extruded length again
G1 F{travel_speed}
;Put printing message on LCD screen
M117 Printing...

;Generated with Cura_SteamEngine 2.1.3
;LAYER_COUNT:19
;LAYER:0
M107
G1 F1500.000000 E-6.00000
G1 Z21.000
G0 F9000.000 X100.280 Y99.608 Z1.200
;TYPE:SKIRT
G1 Z0.200
G1 F1500.000 E0.00000
G1 F1200.00000 X100.853 Y99.060 E0.00870
G1 X101.579 Y98.503 E0.01874
G1 X103.100 Y97.472 E0.03890
G1 X103.779 Y97.061 E0.04761
G1 X104.602 Y96.676 E0.05758
G1 X106.310 Y95.995 E0.07776
G1 X107.061 Y95.739 E0.08646
G1 X107.954 Y95.539 E0.09651
G1 X109.767 Y95.242 E0.11667
G1 X110.555 Y95.153 E0.12537
G1 X111.464 Y95.149 E0.13534
G1 X113.299 Y95.248 E0.15551
G1 X114.088 Y95.331 E0.16421
G1 X114.983 Y95.524 E0.17426
G1 X116.754 Y96.016 E0.19443
G1 X117.507 Y96.267 E0.20314
G1 X118.335 Y96.646 E0.21313
G1 X119.959 Y97.507 E0.23330
G1 X120.640 Y97.914 E0.24200
G1 X121.370 Y98.465 E0.25204
G1 X122.770 Y99.655 E0.27220
G1 X123.348 Y100.198 E0.28090
G1 X123.937 Y100.887 E0.29085
G1 X125.050 Y102.350 E0.31102
G1 X125.498 Y103.005 E0.31973
G1 X125.930 Y103.810 E0.32975
G1 X126.702 Y105.478 E0.34992
G1 X126.998 Y106.214 E0.35862
G1 X127.246 Y107.094 E0.36866
G1 X127.641 Y108.889 E0.38882
G1 X127.772 Y109.671 E0.39752
G1 X127.813 Y110.153 E0.40283
G1 X127.863 Y111.072 E0.41293
G1 X127.863 Y111.928 E0.42232
G1 X127.813 Y112.847 E0.43242
G1 X127.730 Y113.636 E0.44113
G1 X127.641 Y114.111 E0.44643
G1 X127.246 Y115.906 E0.46660
G1 X127.037 Y116.672 E0.47531
G1 X126.702 Y117.522 E0.48534
G1 X125.930 Y119.190 E0.50550
G1 X125.561 Y119.892 E0.51421
G1 X125.050 Y120.650 E0.52424
G1 X123.937 Y122.113 E0.54441
G1 X123.426 Y122.720 E0.55311
G1 X122.770 Y123.345 E0.56306
G1 X121.370 Y124.535 E0.58322
G1 X120.741 Y125.018 E0.59192
G1 X119.959 Y125.493 E0.60196
G1 X118.335 Y126.354 E0.62213
G1 X117.616 Y126.690 E0.63084
G1 X116.754 Y126.984 E0.64083
G1 X114.983 Y127.476 E0.66100
G1 X114.209 Y127.649 E0.66970
G1 X113.299 Y127.752 E0.67975
G1 X111.464 Y127.851 E0.69992
G1 X110.671 Y127.853 E0.70862
G1 X109.767 Y127.758 E0.71859
G1 X107.954 Y127.461 E0.73875
G1 X107.178 Y127.294 E0.74746
G1 X106.310 Y127.005 E0.75750
G1 X104.602 Y126.324 E0.77767
G1 X103.881 Y125.993 E0.78638
G1 X103.100 Y125.528 E0.79635
G1 X101.579 Y124.497 E0.81652
G1 X100.946 Y124.019 E0.82522
G1 X100.280 Y123.392 E0.83526
G1 X99.016 Y122.057 E0.85543
G1 X98.500 Y121.454 E0.86414
G1 X97.988 Y120.706 E0.87408
G1 X97.040 Y119.132 E0.89425
G1 X96.665 Y118.433 E0.90295
G1 X96.323 Y117.584 E0.91299
G1 X95.736 Y115.842 E0.93316
G1 X95.521 Y115.078 E0.94187
G1 X95.370 Y114.180 E0.95187
G1 X95.171 Y112.353 E0.97203
G1 X95.125 Y111.561 E0.98074
G1 X95.171 Y110.647 E0.99078
G1 X95.370 Y108.820 E1.01094
G1 X95.496 Y108.037 E1.01965
G1 X95.736 Y107.158 E1.02964
G1 X96.323 Y105.416 E1.04982
G1 X96.614 Y104.678 E1.05852
G1 X97.040 Y103.868 E1.06856
G1 X97.988 Y102.294 E1.08872
G1 X98.431 Y101.636 E1.09743
G1 X99.016 Y100.943 E1.10738
G1 X100.280 Y99.608 E1.12755
G0 F9000.00000 X100.534 Y99.848
G1 F1200.000 X101.095 Y99.313 E1.13606
G1 X101.776 Y98.793 E1.14546
G1 X103.297 Y97.762 E1.16562
G1 X103.960 Y97.361 E1.17413
G1 X104.732 Y97.001 E1.18347
G1 X106.440 Y96.320 E1.20365
G1 X107.174 Y96.070 E1.21216
G1 X108.010 Y95.884 E1.22155
G1 X109.823 Y95.587 E1.24171
G1 X110.594 Y95.501 E1.25023
G1 X111.445 Y95.499 E1.25956
G1 X113.280 Y95.598 E1.27973
G1 X114.052 Y95.680 E1.28825
G1 X114.889 Y95.862 E1.29765
G1 X116.660 Y96.354 E1.31781
G1 X117.396 Y96.599 E1.32633
G1 X118.171 Y96.956 E1.33569
G1 X119.795 Y97.817 E1.35586
G1 X120.460 Y98.215 E1.36436
G1 X121.144 Y98.731 E1.37376
G1 X122.544 Y99.921 E1.39393
G1 X123.108 Y100.454 E1.40244
G1 X123.659 Y101.099 E1.41175
G1 X124.772 Y102.562 E1.43192
G1 X125.209 Y103.203 E1.44043
G1 X125.612 Y103.957 E1.44981
G1 X126.384 Y105.625 E1.46998
G1 X126.673 Y106.345 E1.47849
G1 X126.904 Y107.169 E1.48788
G1 X127.299 Y108.964 E1.50805
G1 X127.427 Y109.729 E1.51656
G1 X127.464 Y110.172 E1.52144
G1 X127.514 Y111.091 E1.53154
G1 X127.514 Y111.909 E1.54052
G1 X127.464 Y112.828 E1.55061
G1 X127.382 Y113.599 E1.55912
G1 X127.299 Y114.036 E1.56400
G1 X126.904 Y115.831 E1.58417
G1 X126.699 Y116.579 E1.59268
G1 X126.384 Y117.375 E1.60207
G1 X125.612 Y119.043 E1.62224
G1 X125.250 Y119.729 E1.63075
G1 X124.772 Y120.438 E1.64014
G1 X123.659 Y121.901 E1.66031
G1 X123.158 Y122.493 E1.66882
G1 X122.544 Y123.079 E1.67813
G1 X121.144 Y124.269 E1.69829
G1 X120.527 Y124.740 E1.70681
G1 X119.795 Y125.183 E1.71620
G1 X118.171 Y126.044 E1.73637
G1 X117.468 Y126.372 E1.74488
G1 X116.660 Y126.646 E1.75424
G1 X114.889 Y127.138 E1.77441
G1 X114.132 Y127.307 E1.78292
G1 X113.280 Y127.402 E1.79233
G1 X111.445 Y127.501 E1.81249
G1 X110.670 Y127.503 E1.82100
G1 X109.823 Y127.413 E1.83034
G1 X108.010 Y127.116 E1.85050
G1 X107.253 Y126.951 E1.85900
G1 X106.440 Y126.680 E1.86841
G1 X104.732 Y125.999 E1.88858
G1 X104.027 Y125.675 E1.89710
G1 X103.297 Y125.238 E1.90643
G1 X101.776 Y124.207 E1.92659
G1 X101.157 Y123.739 E1.93511
G1 X100.534 Y123.152 E1.94450
G1 X99.270 Y121.817 E1.96467
G1 X98.766 Y121.227 E1.97319
G1 X98.288 Y120.525 E1.98251
G1 X97.340 Y118.951 E2.00267
G1 X96.974 Y118.267 E2.01118
G1 X96.655 Y117.472 E2.02058
G1 X96.068 Y115.730 E2.04075
G1 X95.859 Y114.983 E2.04926
G1 X95.718 Y114.142 E2.05862
G1 X95.519 Y112.315 E2.07879
G1 X95.475 Y111.540 E2.08730
G1 X95.519 Y110.685 E2.09670
G1 X95.718 Y108.858 E2.11686
G1 X95.842 Y108.092 E2.12538
G1 X96.068 Y107.270 E2.13473
G1 X96.655 Y105.528 E2.15490
G1 X96.940 Y104.807 E2.16341
G1 X97.340 Y104.049 E2.17282
G1 X98.288 Y102.475 E2.19298
G1 X98.722 Y101.832 E2.20149
G1 X99.270 Y101.183 E2.21081
G1 X100.534 Y99.848 E2.23098
G0 F9000.00000 X100.788 Y100.089
G1 F1200.000 X101.337 Y99.567 E2.23930
G1 X101.972 Y99.083 E2.24806
G1 X103.493 Y98.052 E2.26822
G1 X104.142 Y97.661 E2.27653
G1 X104.862 Y97.326 E2.28525
G1 X106.570 Y96.645 E2.30542
G1 X107.287 Y96.402 E2.31373
G1 X108.067 Y96.229 E2.32250
G1 X109.880 Y95.932 E2.34266
G1 X110.633 Y95.850 E2.35097
G1 X111.427 Y95.848 E2.35968
G1 X113.262 Y95.947 E2.37984
G1 X114.015 Y96.028 E2.38815
G1 X114.796 Y96.199 E2.39693
G1 X116.567 Y96.691 E2.41710
G1 X117.285 Y96.932 E2.42541
G1 X118.007 Y97.265 E2.43413
G1 X119.631 Y98.126 E2.45430
G1 X120.280 Y98.515 E2.46260
G1 X120.917 Y98.998 E2.47138
G1 X122.317 Y100.188 E2.49154
G1 X122.867 Y100.708 E2.49984
G1 X123.380 Y101.311 E2.50853
G1 X124.493 Y102.774 E2.52870
G1 X124.919 Y103.400 E2.53701
G1 X125.294 Y104.104 E2.54576
G1 X126.066 Y105.772 E2.56593
G1 X126.348 Y106.475 E2.57424
G1 X126.562 Y107.244 E2.58300
G1 X126.957 Y109.039 E2.60317
G1 X127.081 Y109.786 E2.61148
G1 X127.114 Y110.191 E2.61593
G1 X127.164 Y111.110 E2.62603
G1 X127.164 Y111.890 E2.63459
G1 X127.114 Y112.809 E2.64469
G1 X127.033 Y113.562 E2.65300
G1 X126.957 Y113.961 E2.65746
G1 X126.562 Y115.756 E2.67763
G1 X126.361 Y116.486 E2.68593
G1 X126.066 Y117.228 E2.69470
G1 X125.294 Y118.896 E2.71486
G1 X124.940 Y119.565 E2.72317
G1 X124.493 Y120.226 E2.73192
G1 X123.380 Y121.689 E2.75210
G1 X122.891 Y122.267 E2.76040
G1 X122.317 Y122.812 E2.76909
G1 X120.917 Y124.002 E2.78925
G1 X120.315 Y124.461 E2.79756
G1 X119.631 Y124.874 E2.80632
G1 X118.007 Y125.735 E2.82649
G1 X117.320 Y126.054 E2.83480
G1 X116.567 Y126.309 E2.84353
G1 X114.796 Y126.801 E2.86370
G1 X114.056 Y126.965 E2.87201
G1 X113.262 Y127.053 E2.88078
G1 X111.427 Y127.152 E2.90094
G1 X110.669 Y127.152 E2.90926
G1 X109.880 Y127.068 E2.91797
G1 X108.067 Y126.771 E2.93813
G1 X107.327 Y126.609 E2.94644
G1 X106.570 Y126.355 E2.95520
G1 X104.862 Y125.674 E2.97538
G1 X104.174 Y125.357 E2.98369
G1 X103.493 Y124.948 E2.99241
G1 X101.972 Y123.917 E3.01257
G1 X101.369 Y123.460 E3.02087
G1 X100.788 Y122.911 E3.02964
G1 X99.524 Y121.576 E3.04981
G1 X99.033 Y120.999 E3.05813
G1 X98.588 Y120.345 E3.06681
G1 X97.640 Y118.771 E3.08697
G1 X97.284 Y118.102 E3.09528
G1 X96.987 Y117.360 E3.10405
G1 X96.400 Y115.618 E3.12423
G1 X96.196 Y114.889 E3.13253
G1 X96.066 Y114.104 E3.14126
G1 X95.867 Y112.277 E3.16143
G1 X95.825 Y111.521 E3.16974
G1 X95.867 Y110.723 E3.17851
G1 X96.066 Y108.896 E3.19867
G1 X96.188 Y108.149 E3.20698
G1 X96.400 Y107.382 E3.21571
G1 X96.987 Y105.640 E3.23588
G1 X97.266 Y104.936 E3.24419
G1 X97.640 Y104.229 E3.25296
G1 X98.588 Y102.655 E3.27313
G1 X99.012 Y102.028 E3.28143
G1 X99.524 Y101.424 E3.29012
G1 X100.788 Y100.089 E3.31029
G0 F9000.00000 X101.042 Y100.330
G1 F1200.000 X101.578 Y99.821 E3.31840
G1 X102.169 Y99.373 E3.32654
G1 X103.690 Y98.342 E3.34670
G1 X104.323 Y97.961 E3.35481
G1 X104.991 Y97.651 E3.36289
G1 X106.699 Y96.970 E3.38307
G1 X107.399 Y96.734 E3.39117
G1 X108.124 Y96.575 E3.39932
G1 X109.937 Y96.278 E3.41948
G1 X110.671 Y96.198 E3.42758
G1 X111.408 Y96.198 E3.43567
G1 X113.243 Y96.297 E3.45583
G1 X113.977 Y96.377 E3.46393
G1 X114.702 Y96.536 E3.47208
G1 X116.473 Y97.028 E3.49225
G1 X117.173 Y97.264 E3.50035
G1 X117.843 Y97.574 E3.50845
G1 X119.467 Y98.435 E3.52862
G1 X120.100 Y98.816 E3.53673
G1 X120.690 Y99.265 E3.54486
G1 X122.090 Y100.455 E3.56503
G1 X122.626 Y100.963 E3.57313
G1 X123.102 Y101.523 E3.58119
G1 X124.215 Y102.986 E3.60136
G1 X124.630 Y103.597 E3.60947
G1 X124.977 Y104.251 E3.61759
G1 X125.749 Y105.919 E3.63776
G1 X126.022 Y106.605 E3.64586
G1 X126.221 Y107.319 E3.65400
G1 X126.616 Y109.114 E3.67416
G1 X126.765 Y110.210 E3.68630
G1 X126.815 Y111.129 E3.69640
G1 X126.815 Y111.871 E3.70454
G1 X126.765 Y112.790 E3.71464
G1 X126.616 Y113.886 E3.72678
G1 X126.221 Y115.681 E3.74694
G1 X126.023 Y116.393 E3.75505
G1 X125.749 Y117.081 E3.76318
G1 X124.977 Y118.749 E3.78335
G1 X124.631 Y119.401 E3.79145
G1 X124.215 Y120.014 E3.79957
G1 X123.102 Y121.477 E3.81975
G1 X122.623 Y122.040 E3.82786
G1 X122.090 Y122.545 E3.83591
G1 X120.690 Y123.735 E3.85607
G1 X120.102 Y124.182 E3.86418
G1 X119.467 Y124.565 E3.87232
G1 X117.843 Y125.426 E3.89249
G1 X117.173 Y125.736 E3.90059
G1 X116.473 Y125.972 E3.90869
G1 X114.702 Y126.464 E3.92886
G1 X113.981 Y126.623 E3.93696
G1 X113.243 Y126.703 E3.94511
G1 X111.408 Y126.802 E3.96527
G1 X110.669 Y126.802 E3.97338
G1 X109.937 Y126.722 E3.98146
G1 X108.124 Y126.425 E4.00162
G1 X107.402 Y126.267 E4.00973
G1 X106.699 Y126.030 E4.01787
G1 X104.991 Y125.349 E4.03805
G1 X104.321 Y125.038 E4.04615
G1 X103.690 Y124.658 E4.05423
G1 X102.169 Y123.627 E4.07440
G1 X101.580 Y123.181 E4.08250
G1 X101.042 Y122.670 E4.09065
G1 X99.778 Y121.335 E4.11082
G1 X99.300 Y120.772 E4.11892
G1 X98.888 Y120.164 E4.12698
G1 X97.940 Y118.590 E4.14714
G1 X97.593 Y117.938 E4.15525
G1 X97.318 Y117.248 E4.16340
G1 X96.731 Y115.506 E4.18357
G1 X96.534 Y114.795 E4.19166
G1 X96.414 Y114.066 E4.19977
G1 X96.215 Y112.239 E4.21994
G1 X96.175 Y111.501 E4.22805
G1 X96.215 Y110.761 E4.23618
G1 X96.414 Y108.934 E4.25635
G1 X96.534 Y108.205 E4.26445
G1 X96.731 Y107.494 E4.27255
G1 X97.318 Y105.752 E4.29272
G1 X97.592 Y105.065 E4.30083
G1 X97.940 Y104.410 E4.30897
G1 X98.888 Y102.836 E4.32913
G1 X99.302 Y102.225 E4.33723
G1 X99.778 Y101.665 E4.34530
G1 X101.042 Y100.330 E4.36547
G0 F9000.00000 X101.296 Y100.570
G1 F1200.000 X101.819 Y100.076 E4.37336
G1 X102.365 Y99.662 E4.38088
G1 X103.886 Y98.631 E4.40105
G1 X104.503 Y98.261 E4.40894
G1 X105.121 Y97.976 E4.41641
G1 X106.829 Y97.295 E4.43658
G1 X107.511 Y97.067 E4.44447
G1 X108.180 Y96.920 E4.45199
G1 X109.993 Y96.623 E4.47215
G1 X110.709 Y96.546 E4.48005
G1 X111.389 Y96.547 E4.48751
G1 X113.224 Y96.646 E4.50768
G1 X113.939 Y96.725 E4.51557
G1 X114.608 Y96.873 E4.52309
G1 X116.379 Y97.365 E4.54326
G1 X117.061 Y97.596 E4.55116
G1 X117.679 Y97.883 E4.55864
G1 X119.303 Y98.744 E4.57881
G1 X119.919 Y99.116 E4.58670
G1 X120.464 Y99.531 E4.59422
G1 X121.864 Y100.721 E4.61438
G1 X122.385 Y101.217 E4.62227
G1 X122.823 Y101.735 E4.62972
G1 X123.936 Y103.198 E4.64989
G1 X124.339 Y103.793 E4.65777
G1 X124.659 Y104.398 E4.66528
G1 X125.431 Y106.066 E4.68545
G1 X125.697 Y106.735 E4.69335
G1 X125.879 Y107.394 E4.70085
G1 X126.274 Y109.189 E4.72102
G1 X126.415 Y110.229 E4.73254
G1 X126.465 Y111.148 E4.74263
G1 X126.465 Y111.852 E4.75036
G1 X126.415 Y112.771 E4.76046
G1 X126.274 Y113.811 E4.77197
G1 X125.879 Y115.606 E4.79214
G1 X125.685 Y116.299 E4.80004
G1 X125.431 Y116.934 E4.80754
G1 X124.659 Y118.602 E4.82771
G1 X124.321 Y119.237 E4.83560
G1 X123.936 Y119.802 E4.84311
G1 X122.823 Y121.265 E4.86328
G1 X122.357 Y121.813 E4.87117
G1 X121.864 Y122.279 E4.87861
G1 X120.464 Y123.469 E4.89878
G1 X119.890 Y123.903 E4.90667
G1 X119.303 Y124.256 E4.91419
G1 X117.679 Y125.117 E4.93436
G1 X117.026 Y125.418 E4.94225
G1 X116.379 Y125.635 E4.94974
G1 X114.608 Y126.127 E4.96990
G1 X113.905 Y126.280 E4.97780
G1 X113.224 Y126.354 E4.98531
G1 X111.389 Y126.453 E5.00548
G1 X110.669 Y126.451 E5.01338
G1 X109.993 Y126.377 E5.02084
G1 X108.180 Y126.080 E5.04100
G1 X107.478 Y125.924 E5.04889
G1 X106.829 Y125.705 E5.05641
G1 X105.121 Y125.024 E5.07658
G1 X104.468 Y124.720 E5.08449
G1 X103.886 Y124.369 E5.09195
G1 X102.365 Y123.338 E5.11211
G1 X101.793 Y122.902 E5.12000
G1 X101.296 Y122.430 E5.12752
G1 X100.032 Y121.095 E5.14769
G1 X99.567 Y120.546 E5.15559
G1 X99.187 Y119.984 E5.16303
G1 X98.239 Y118.410 E5.18319
G1 X97.903 Y117.774 E5.19109
G1 X97.650 Y117.137 E5.19861
G1 X97.063 Y115.395 E5.21878
G1 X96.871 Y114.701 E5.22668
G1 X96.762 Y114.028 E5.23416
G1 X96.563 Y112.201 E5.25433
G1 X96.525 Y111.483 E5.26222
G1 X96.563 Y110.799 E5.26973
G1 X96.762 Y108.972 E5.28990
G1 X96.880 Y108.262 E5.29780
G1 X97.063 Y107.605 E5.30528
G1 X97.650 Y105.863 E5.32545
G1 X97.917 Y105.195 E5.33334
G1 X98.239 Y104.590 E5.34086
G1 X99.187 Y103.016 E5.36103
G1 X99.592 Y102.422 E5.36892
G1 X100.032 Y101.905 E5.37636
G1 X101.296 Y100.570 E5.39654
G0 F9000.00000 X101.550 Y100.811
G1 F1200.000 X102.060 Y100.331 E5.40422
G1 X102.561 Y99.952 E5.41112
G1 X104.082 Y98.921 E5.43128
G1 X104.683 Y98.562 E5.43896
G1 X105.251 Y98.302 E5.44581
G1 X106.959 Y97.621 E5.46599
G1 X107.622 Y97.399 E5.47366
G1 X108.237 Y97.266 E5.48057
G1 X110.050 Y96.969 E5.50073
G1 X110.746 Y96.895 E5.50841
G1 X111.370 Y96.897 E5.51525
G1 X113.205 Y96.996 E5.53542
G1 X113.900 Y97.073 E5.54309
G1 X114.514 Y97.211 E5.55000
G1 X116.285 Y97.703 E5.57016
G1 X116.948 Y97.928 E5.57785
G1 X117.515 Y98.193 E5.58471
G1 X119.139 Y99.054 E5.60488
G1 X119.738 Y99.416 E5.61256
G1 X120.237 Y99.798 E5.61946
G1 X121.637 Y100.988 E5.63962
G1 X122.143 Y101.471 E5.64730
G1 X122.545 Y101.946 E5.65412
G1 X123.658 Y103.409 E5.67430
G1 X124.049 Y103.990 E5.68198
G1 X124.342 Y104.545 E5.68887
G1 X125.114 Y106.213 E5.70903
G1 X125.371 Y106.864 E5.71671
G1 X125.537 Y107.470 E5.72361
G1 X125.932 Y109.265 E5.74378
G1 X126.066 Y110.248 E5.75466
G1 X126.116 Y111.167 E5.76476
G1 X126.116 Y111.833 E5.77207
G1 X126.066 Y112.752 E5.78217
G1 X125.932 Y113.735 E5.79305
G1 X125.537 Y115.530 E5.81322
G1 X125.348 Y116.204 E5.82090
G1 X125.114 Y116.787 E5.82780
G1 X124.342 Y118.455 E5.84796
G1 X124.012 Y119.072 E5.85564
G1 X123.658 Y119.591 E5.86253
G1 X122.545 Y121.054 E5.88271
G1 X122.090 Y121.585 E5.89038
G1 X121.637 Y122.012 E5.89721
G1 X120.237 Y123.202 E5.91737
G1 X119.679 Y123.624 E5.92505
G1 X119.139 Y123.946 E5.93195
G1 X117.515 Y124.807 E5.95212
G1 X116.879 Y125.099 E5.95980
G1 X116.285 Y125.297 E5.96667
G1 X114.514 Y125.789 E5.98683
