;FLAVOR:RepRap
;TIME:25795
M190 S60.000000
M104 S210.000000
M109 S210.000000
;Sliced at: {day} {date} {time}
;Basic settings: Layer height: 0.1 Walls: 0.8 Fill: {fill_density}
;Print time: {print_time}
;Filament used: {filament_amount}m {filament_weight}g
;Filament cost: {filament_cost}
;M190 S{print_bed_temperature} ;Uncomment to add your own bed temperature line
;M109 S{print_temperature} ;Uncomment to add your own temperature line
G21        ;metric values
G90        ;absolute positioning
M82        ;set extruder to absolute mode
M107       ;start with the fan off
G28 X0 Y0  ;move X/Y to min endstops
G28 Z0     ;move Z to min endstops
G1 F12000 X5 Y10 ;move hotend to front left
G1 Z15.0 F{travel_speed} ;move the platform down 15mm
G92 E0                  ;zero the extruded length
G1 F200 E20              ;extrude 20mm of feed stock FAST
G1 F50 E30              ;extrude 30mm of feed stock SLOW
G92 E0                  ;zero the extruded length again
G1 F{travel_speed}
;Put printing message on LCD screen
M117 Printing...

;Generated with Cura_SteamEngine 2.1.3
;LAYER_COUNT:119
;LAYER:0
M107
G1 F1500.000000 E-6.00000
G1 Z21.000
G0 F9000.000 X111.482 Y110.029 Z1.200
;TYPE:SKIRT
G1 Z0.200
G1 F1500.000 E0.00000
G1 F1200.00000 X111.218 Y110.353 E0.00459
G1 X111.032 Y110.701 E0.00892
G1 X110.913 Y111.094 E0.01342
G1 X110.874 Y111.492 E0.01781
G1 X110.916 Y111.909 E0.02241
G1 X111.037 Y112.304 E0.02694
G1 X111.228 Y112.660 E0.03137
G1 X111.496 Y112.985 E0.03600
G1 X111.800 Y113.235 E0.04032
G1 X112.159 Y113.427 E0.04478
G1 X112.553 Y113.546 E0.04930
G1 X112.951 Y113.585 E0.05369
G1 X113.369 Y113.543 E0.05830
G1 X113.764 Y113.422 E0.06283
G1 X114.123 Y113.229 E0.06730
G1 X114.437 Y112.971 E0.07176
G1 X114.701 Y112.647 E0.07635
G1 X114.887 Y112.299 E0.08068
G1 X115.006 Y111.906 E0.08518
G1 X115.045 Y111.508 E0.08957
G1 X115.003 Y111.091 E0.09417
G1 X114.882 Y110.696 E0.09870
G1 X114.691 Y110.340 E0.10314
G1 X114.423 Y110.015 E0.10776
G1 X114.119 Y109.765 E0.11208
G1 X113.760 Y109.573 E0.11654
G1 X113.365 Y109.454 E0.12107
G1 X112.968 Y109.415 E0.12545
G1 X112.550 Y109.457 E0.13006
G1 X112.155 Y109.578 E0.13459
G1 X111.796 Y109.771 E0.13906
G1 X111.482 Y110.029 E0.14352
G0 F9000.00000 X111.233 Y109.782
G1 F1200.000 X110.924 Y110.160 E0.14888
G1 X110.707 Y110.565 E0.15392
G1 X110.568 Y111.024 E0.15918
G1 X110.522 Y111.492 E0.16434
G1 X110.572 Y111.982 E0.16975
G1 X110.711 Y112.436 E0.17496
G1 X110.937 Y112.857 E0.18020
G1 X111.246 Y113.233 E0.18554
G1 X111.604 Y113.526 E0.19062
G1 X112.028 Y113.753 E0.19590
G1 X112.487 Y113.892 E0.20116
G1 X112.946 Y113.937 E0.20622
G1 X113.442 Y113.887 E0.21169
G1 X113.896 Y113.748 E0.21690
G1 X114.318 Y113.522 E0.22215
G1 X114.686 Y113.218 E0.22739
G1 X114.995 Y112.840 E0.23275
G1 X115.212 Y112.435 E0.23779
G1 X115.351 Y111.976 E0.24305
G1 X115.397 Y111.508 E0.24821
G1 X115.347 Y111.018 E0.25361
G1 X115.208 Y110.564 E0.25882
G1 X114.982 Y110.143 E0.26407
G1 X114.673 Y109.767 E0.26941
G1 X114.315 Y109.474 E0.27448
G1 X113.891 Y109.247 E0.27976
G1 X113.432 Y109.108 E0.28502
G1 X112.972 Y109.063 E0.29010
G1 X112.477 Y109.113 E0.29555
G1 X112.023 Y109.252 E0.30076
G1 X111.601 Y109.478 E0.30602
G1 X111.233 Y109.782 E0.31126
G0 F9000.00000 X110.983 Y109.534
G1 F1200.000 X110.634 Y109.961 E0.31731
G1 X110.382 Y110.433 E0.32318
G1 X110.223 Y110.959 E0.32921
G1 X110.170 Y111.488 E0.33504
G1 X110.227 Y112.053 E0.34127
G1 X110.386 Y112.572 E0.34723
G1 X110.645 Y113.053 E0.35322
G1 X110.996 Y113.480 E0.35929
G1 X111.408 Y113.819 E0.36514
G1 X111.892 Y114.077 E0.37116
G1 X112.418 Y114.236 E0.37719
G1 X112.953 Y114.289 E0.38309
G1 X113.508 Y114.233 E0.38921
G1 X114.032 Y114.073 E0.39522
G1 X114.513 Y113.814 E0.40122
G1 X114.936 Y113.466 E0.40723
G1 X115.285 Y113.039 E0.41328
G1 X115.537 Y112.567 E0.41915
G1 X115.696 Y112.041 E0.42518
G1 X115.749 Y111.512 E0.43101
G1 X115.692 Y110.947 E0.43724
G1 X115.533 Y110.428 E0.44320
G1 X115.274 Y109.947 E0.44919
G1 X114.921 Y109.518 E0.45529
G1 X114.511 Y109.181 E0.46111
G1 X114.027 Y108.923 E0.46713
G1 X113.501 Y108.763 E0.47316
G1 X112.967 Y108.711 E0.47905
G1 X112.410 Y108.767 E0.48519
G1 X111.887 Y108.927 E0.49120
G1 X111.406 Y109.186 E0.49719
G1 X110.983 Y109.534 E0.50320
G0 F9000.00000 X110.735 Y109.284
G1 F1200.000 X110.340 Y109.769 E0.51006
G1 X110.057 Y110.298 E0.51665
G1 X109.878 Y110.887 E0.52340
G1 X109.819 Y111.489 E0.53004
G1 X109.883 Y112.120 E0.53700
G1 X110.063 Y112.710 E0.54377
G1 X110.352 Y113.248 E0.55047
G1 X110.750 Y113.731 E0.55734
G1 X111.216 Y114.113 E0.56395
G1 X111.757 Y114.402 E0.57068
G1 X112.347 Y114.581 E0.57744
G1 X112.953 Y114.641 E0.58413
G1 X113.575 Y114.578 E0.59099
G1 X114.170 Y114.396 E0.59781
G1 X114.711 Y114.105 E0.60455
G1 X115.184 Y113.716 E0.61127
G1 X115.579 Y113.231 E0.61814
G1 X115.862 Y112.702 E0.62472
G1 X116.041 Y112.113 E0.63147
G1 X116.100 Y111.511 E0.63811
G1 X116.036 Y110.880 E0.64507
G1 X115.856 Y110.290 E0.65184
G1 X115.567 Y109.752 E0.65854
G1 X115.169 Y109.269 E0.66541
G1 X114.703 Y108.887 E0.67202
G1 X114.162 Y108.598 E0.67875
G1 X113.572 Y108.419 E0.68552
G1 X112.965 Y108.359 E0.69221
G1 X112.344 Y108.422 E0.69906
G1 X111.749 Y108.604 E0.70589
G1 X111.208 Y108.895 E0.71263
G1 X110.735 Y109.284 E0.71935
G0 F9000.00000 X110.486 Y109.037
G1 F1200.000 X110.045 Y109.577 E0.72700
G1 X109.732 Y110.163 E0.73429
G1 X109.534 Y110.817 E0.74178
G1 X109.467 Y111.494 E0.74925
G1 X109.537 Y112.188 E0.75690
G1 X109.737 Y112.843 E0.76442
G1 X110.061 Y113.445 E0.77192
G1 X110.502 Y113.980 E0.77953
G1 X111.017 Y114.403 E0.78684
G1 X111.626 Y114.728 E0.79441
G1 X112.275 Y114.925 E0.80186
G1 X112.954 Y114.992 E0.80934
G1 X113.648 Y114.922 E0.81700
G1 X114.303 Y114.722 E0.82451
G1 X114.905 Y114.398 E0.83201
G1 X115.433 Y113.963 E0.83952
G1 X115.874 Y113.423 E0.84717
G1 X116.187 Y112.837 E0.85446
G1 X116.385 Y112.183 E0.86196
G1 X116.452 Y111.506 E0.86942
G1 X116.382 Y110.812 E0.87708
G1 X116.182 Y110.157 E0.88459
G1 X115.858 Y109.555 E0.89209
G1 X115.417 Y109.020 E0.89970
G1 X114.902 Y108.597 E0.90701
G1 X114.293 Y108.272 E0.91459
G1 X113.643 Y108.075 E0.92204
G1 X112.965 Y108.008 E0.92952
G1 X112.271 Y108.078 E0.93717
G1 X111.616 Y108.278 E0.94469
G1 X111.014 Y108.602 E0.95219
G1 X110.486 Y109.037 E0.95969
G0 F9000.00000 X110.236 Y108.789
G1 F1200.000 X109.755 Y109.378 E0.96804
G1 X109.406 Y110.031 E0.97616
G1 X109.189 Y110.747 E0.98437
G1 X109.116 Y111.495 E0.99262
G1 X109.193 Y112.260 E1.00105
G1 X109.411 Y112.975 E1.00926
G1 X109.770 Y113.641 E1.01756
G1 X110.254 Y114.229 E1.02592
G1 X110.825 Y114.697 E1.03402
G1 X111.489 Y115.052 E1.04228
G1 X112.211 Y115.271 E1.05056
G1 X112.950 Y115.344 E1.05871
G1 X113.719 Y115.266 E1.06719
G1 X114.435 Y115.048 E1.07540
G1 X115.104 Y114.688 E1.08374
G1 X115.683 Y114.211 E1.09197
G1 X116.164 Y113.622 E1.10031
G1 X116.513 Y112.969 E1.10844
G1 X116.730 Y112.253 E1.11665
G1 X116.803 Y111.505 E1.12489
G1 X116.726 Y110.740 E1.13333
G1 X116.508 Y110.025 E1.14153
G1 X116.149 Y109.359 E1.14983
G1 X115.665 Y108.771 E1.15819
G1 X115.094 Y108.303 E1.16629
G1 X114.430 Y107.948 E1.17455
G1 X113.708 Y107.729 E1.18283
G1 X112.969 Y107.656 E1.19098
G1 X112.199 Y107.734 E1.19947
G1 X111.484 Y107.952 E1.20767
G1 X110.815 Y108.312 E1.21601
G1 X110.236 Y108.789 E1.22424
G0 F9000.00000 X109.987 Y108.542
G1 F1200.000 X109.461 Y109.185 E1.23336
G1 X109.082 Y109.895 E1.24219
G1 X108.843 Y110.681 E1.25120
G1 X108.764 Y111.491 E1.26013
G1 X108.848 Y112.326 E1.26934
G1 X109.090 Y113.117 E1.27842
G1 X109.477 Y113.839 E1.28741
G1 X110.003 Y114.476 E1.29647
G1 X110.629 Y114.990 E1.30536
G1 X111.354 Y115.377 E1.31438
G1 X112.140 Y115.616 E1.32339
G1 X112.951 Y115.696 E1.33233
G1 X113.786 Y115.611 E1.34154
G1 X114.577 Y115.369 E1.35062
G1 X115.295 Y114.983 E1.35957
G1 X115.932 Y114.458 E1.36862
G1 X116.458 Y113.815 E1.37774
G1 X116.837 Y113.105 E1.38657
G1 X117.076 Y112.319 E1.39558
G1 X117.155 Y111.509 E1.40451
G1 X117.071 Y110.674 E1.41372
G1 X116.829 Y109.883 E1.42280
G1 X116.442 Y109.161 E1.43179
G1 X115.916 Y108.524 E1.44085
G1 X115.290 Y108.010 E1.44974
G1 X114.565 Y107.623 E1.45876
G1 X113.780 Y107.384 E1.46776
G1 X112.968 Y107.304 E1.47672
G1 X112.133 Y107.389 E1.48593
G1 X111.342 Y107.631 E1.49500
G1 X110.624 Y108.017 E1.50395
G1 X109.987 Y108.542 E1.51300
G0 F9000.00000 X109.739 Y108.292
G1 F1200.000 X109.167 Y108.993 E1.52293
G1 X108.757 Y109.759 E1.53247
G1 X108.499 Y110.611 E1.54223
G1 X108.412 Y111.493 E1.55196
G1 X108.504 Y112.399 E1.56195
G1 X108.764 Y113.250 E1.57172
G1 X109.186 Y114.036 E1.58150
G1 X109.755 Y114.726 E1.59132
G1 X110.430 Y115.280 E1.60090
G1 X111.222 Y115.703 E1.61075
G1 X112.070 Y115.960 E1.62047
G1 X112.956 Y116.048 E1.63024
G1 X113.854 Y115.957 E1.64015
G1 X114.710 Y115.695 E1.64997
G1 X115.493 Y115.274 E1.65973
G1 X116.180 Y114.708 E1.66949
G1 X116.752 Y114.007 E1.67942
G1 X117.162 Y113.241 E1.68895
G1 X117.420 Y112.389 E1.69872
G1 X117.507 Y111.507 E1.70845
G1 X117.415 Y110.601 E1.71844
G1 X117.155 Y109.750 E1.72820
G1 X116.733 Y108.964 E1.73799
G1 X116.164 Y108.274 E1.74781
G1 X115.489 Y107.720 E1.75739
G1 X114.697 Y107.297 E1.76724
G1 X113.849 Y107.040 E1.77696
G1 X112.962 Y106.952 E1.78674
G1 X112.065 Y107.043 E1.79664
G1 X111.209 Y107.305 E1.80646
G1 X110.426 Y107.726 E1.81622
G1 X109.739 Y108.292 E1.82598
G0 F9000.00000 X109.489 Y108.044
G1 F1200.000 X108.879 Y108.791 E1.83657
G1 X108.433 Y109.624 E1.84693
G1 X108.154 Y110.545 E1.85749
G1 X108.060 Y111.498 E1.86800
G1 X108.158 Y112.466 E1.87868
G1 X108.438 Y113.384 E1.88921
G1 X108.894 Y114.230 E1.89975
G1 X109.507 Y114.974 E1.91033
G1 X110.238 Y115.574 E1.92071
G1 X111.083 Y116.026 E1.93122
G1 X112.009 Y116.306 E1.94184
G1 X112.952 Y116.400 E1.95224
G1 X113.926 Y116.301 E1.96298
G1 X114.844 Y116.021 E1.97351
G1 X115.693 Y115.564 E1.98409
G1 X116.430 Y114.956 E1.99457
G1 X117.040 Y114.209 E2.00516
G1 X117.486 Y113.376 E2.01553
G1 X117.765 Y112.455 E2.02608
G1 X117.859 Y111.500 E2.03661
G1 X117.761 Y110.534 E2.04727
G1 X117.481 Y109.616 E2.05780
G1 X117.025 Y108.770 E2.06835
G1 X116.412 Y108.026 E2.07892
G1 X115.681 Y107.426 E2.08930
G1 X114.836 Y106.974 E2.09982
G1 X113.910 Y106.694 E2.11043
G1 X112.966 Y106.600 E2.12084
G1 X111.993 Y106.699 E2.13157
G1 X111.075 Y106.979 E2.14210
G1 X110.226 Y107.436 E2.15268
G1 X109.489 Y108.044 E2.16317
G0 F9000.00000 X109.239 Y107.796
G1 F1200.000 X108.584 Y108.598 E2.17453
G1 X108.108 Y109.489 E2.18561
G1 X107.808 Y110.479 E2.19696
G1 X107.708 Y111.494 E2.20816
G1 X107.813 Y112.537 E2.21966
G1 X108.113 Y113.516 E2.23089
G1 X108.604 Y114.430 E2.24228
G1 X109.259 Y115.224 E2.25357
G1 X110.042 Y115.867 E2.26469
G1 X110.947 Y116.350 E2.27595
G1 X111.938 Y116.651 E2.28731
G1 X112.953 Y116.751 E2.29850
G1 X113.997 Y116.646 E2.31002
G1 X114.976 Y116.346 E2.32125
G1 X115.890 Y115.855 E2.33264
G1 X116.680 Y115.204 E2.34387
G1 X117.335 Y114.402 E2.35523
G1 X117.811 Y113.511 E2.36632
G1 X118.111 Y112.521 E2.37767
G1 X118.211 Y111.506 E2.38886
G1 X118.106 Y110.463 E2.40036
G1 X117.806 Y109.484 E2.41160
G1 X117.315 Y108.570 E2.42298
G1 X116.660 Y107.776 E2.43427
G1 X115.877 Y107.133 E2.44539
G1 X114.972 Y106.650 E2.45665
G1 X113.981 Y106.349 E2.46801
G1 X112.966 Y106.249 E2.47920
G1 X111.922 Y106.355 E2.49072
G1 X110.943 Y106.654 E2.50195
G1 X110.029 Y107.145 E2.51334
G1 X109.239 Y107.796 E2.52457
G0 F9000.00000 X108.992 Y107.546
G1 F1200.000 X108.290 Y108.406 E2.53675
G1 X107.784 Y109.352 E2.54852
G1 X107.464 Y110.409 E2.56064
G1 X107.357 Y111.495 E2.57261
G1 X107.469 Y112.605 E2.58486
G1 X107.790 Y113.657 E2.59692
G1 X108.308 Y114.621 E2.60893
G1 X109.011 Y115.473 E2.62105
G1 X109.847 Y116.159 E2.63292
G1 X110.815 Y116.676 E2.64496
G1 X111.868 Y116.995 E2.65703
G1 X112.954 Y117.103 E2.66901
G1 X114.065 Y116.990 E2.68126
G1 X115.117 Y116.669 E2.69333
G1 X116.084 Y116.149 E2.70538
G1 X116.927 Y115.454 E2.71737
G1 X117.629 Y114.594 E2.72955
G1 X118.135 Y113.648 E2.74132
G1 X118.455 Y112.591 E2.75344
G1 X118.562 Y111.505 E2.76541
G1 X118.450 Y110.395 E2.77765
G1 X118.129 Y109.343 E2.78972
G1 X117.611 Y108.379 E2.80173
G1 X116.908 Y107.527 E2.81385
G1 X116.072 Y106.841 E2.82572
G1 X115.104 Y106.324 E2.83776
G1 X114.051 Y106.005 E2.84983
G1 X112.964 Y105.897 E2.86182
G1 X111.854 Y106.010 E2.87406
G1 X110.802 Y106.331 E2.88613
G1 X109.835 Y106.851 E2.89818
G1 X108.992 Y107.546 E2.91017
G0 F9000.00000 X108.740 Y107.301
G1 F1200.000 X108.000 Y108.207 E2.92300
G1 X107.458 Y109.221 E2.93562
G1 X107.119 Y110.338 E2.94843
G1 X107.005 Y111.495 E2.96118
G1 X107.124 Y112.677 E2.97422
G1 X107.465 Y113.791 E2.98700
G1 X108.017 Y114.818 E2.99980
G1 X108.763 Y115.722 E3.01266
G1 X109.651 Y116.451 E3.02527
G1 X110.680 Y117.001 E3.03807
G1 X111.802 Y117.341 E3.05093
G1 X112.954 Y117.455 E3.06363
G1 X114.132 Y117.336 E3.07663
G1 X115.251 Y116.994 E3.08947
G1 X116.278 Y116.442 E3.10226
G1 X117.179 Y115.699 E3.11507
G1 X117.919 Y114.793 E3.12791
G1 X118.461 Y113.779 E3.14053
G1 X118.800 Y112.662 E3.15333
G1 X118.914 Y111.505 E3.16609
G1 X118.795 Y110.323 E3.17913
G1 X118.454 Y109.209 E3.19191
G1 X117.902 Y108.182 E3.20470
G1 X117.156 Y107.278 E3.21757
G1 X116.268 Y106.549 E3.23017
G1 X115.239 Y105.999 E3.24297
G1 X114.117 Y105.659 E3.25584
G1 X112.964 Y105.545 E3.26855
G1 X111.787 Y105.664 E3.28153
G1 X110.668 Y106.006 E3.29437
G1 X109.641 Y106.558 E3.30717
G1 X108.740 Y107.301 E3.31998
G0 F9000.00000 X108.492 Y107.051
G1 F1200.000 X107.706 Y108.015 E3.33363
G1 X107.134 Y109.085 E3.34694
G1 X106.773 Y110.273 E3.36057
G1 X106.653 Y111.496 E3.37405
G1 X106.779 Y112.743 E3.38780
G1 X107.140 Y113.925 E3.40137
G1 X107.726 Y115.015 E3.41494
G1 X108.515 Y115.972 E3.42855
G1 X109.456 Y116.744 E3.44191
G1 X110.543 Y117.325 E3.45543
G1 X111.732 Y117.686 E3.46907
G1 X112.956 Y117.807 E3.48256
G1 X114.203 Y117.680 E3.49632
G1 X115.385 Y117.319 E3.50988
G1 X116.475 Y116.733 E3.52346
G1 X117.427 Y115.949 E3.53699
G1 X118.213 Y114.985 E3.55064
G1 X118.785 Y113.915 E3.56395
G1 X119.146 Y112.727 E3.57758
G1 X119.266 Y111.504 E3.59106
G1 X119.140 Y110.257 E3.60481
G1 X118.779 Y109.075 E3.61838
G1 X118.193 Y107.985 E3.63196
G1 X117.404 Y107.028 E3.64556
G1 X116.463 Y106.256 E3.65892
G1 X115.376 Y105.675 E3.67244
G1 X114.187 Y105.314 E3.68608
G1 X112.963 Y105.193 E3.69958
G1 X111.715 Y105.320 E3.71334
G1 X110.534 Y105.681 E3.72689
G1 X109.444 Y106.267 E3.74047
G1 X108.492 Y107.051 E3.75400
G0 F9000.00000 X108.243 Y106.804
G1 F1200.000 X107.411 Y107.822 E3.76843
G1 X106.809 Y108.949 E3.78245
G1 X106.429 Y110.202 E3.79682
G1 X106.301 Y111.497 E3.81110
G1 X106.434 Y112.812 E3.82560
G1 X106.815 Y114.059 E3.83991
G1 X107.435 Y115.212 E3.85427
G1 X108.267 Y116.221 E3.86862
G1 X109.260 Y117.035 E3.88271
G1 X110.413 Y117.651 E3.89705
G1 X111.661 Y118.030 E3.91137
G1 X112.956 Y118.158 E3.92565
G1 X114.271 Y118.025 E3.94015
G1 X115.519 Y117.644 E3.95447
G1 X116.672 Y117.024 E3.96883
G1 X117.676 Y116.196 E3.98311
G1 X118.508 Y115.178 E3.99754
G1 X119.110 Y114.051 E4.01156
G1 X119.490 Y112.798 E4.02592
G1 X119.618 Y111.503 E4.04020
G1 X119.485 Y110.188 E4.05471
G1 X119.104 Y108.941 E4.06901
G1 X118.484 Y107.788 E4.08338
G1 X117.652 Y106.779 E4.09773
G1 X116.659 Y105.965 E4.11182
G1 X115.506 Y105.349 E4.12616
G1 X114.258 Y104.970 E4.14047
G1 X112.962 Y104.842 E4.15476
G1 X111.648 Y104.975 E4.16926
G1 X110.400 Y105.356 E4.18357
G1 X109.247 Y105.976 E4.19794
G1 X108.243 Y106.804 E4.21222
G0 F9000.00000 X107.993 Y106.556
G1 F1200.000 X107.121 Y107.624 E4.22735
G1 X106.483 Y108.819 E4.24221
G1 X106.085 Y110.131 E4.25726
G1 X105.950 Y111.498 E4.27233
G1 X106.090 Y112.883 E4.28760
G1 X106.492 Y114.198 E4.30269
G1 X107.141 Y115.405 E4.31773
