;FLAVOR:RepRap
;TIME:10423
M190 S60.000000
M104 S210.000000
M109 S210.000000
;Sliced at: {day} {date} {time}
;Basic settings: Layer height: 0.1 Walls: 0.8 Fill: {fill_density}
;Print time: {print_time}
;Filament used: {filament_amount}m {filament_weight}g
;Filament cost: {filament_cost}
;M190 S{print_bed_temperature} ;Uncomment to add your own bed temperature line
;M109 S{print_temperature} ;Uncomment to add your own temperature line
G21        ;metric values
G90        ;absolute positioning
M82        ;set extruder to absolute mode
M107       ;start with the fan off
G28 X0 Y0  ;move X/Y to min endstops
G28 Z0     ;move Z to min endstops
G1 F12000 X5 Y10 ;move hotend to front left
G1 Z15.0 F{travel_speed} ;move the platform down 15mm
G92 E0                  ;zero the extruded length
G1 F200 E20              ;extrude 20mm of feed stock FAST
G1 F50 E30              ;extrude 30mm of feed stock SLOW
G92 E0                  ;zero the extruded length again
G1 F{travel_speed}
;Put printing message on LCD screen
M117 Printing...

;Generated with Cura_SteamEngine 2.1.3
;LAYER_COUNT:413
;LAYER:0
M107
G1 F1500.000000 E-6.00000
G1 Z21.000
G0 F9000.000 X91.256 Y79.144 Z1.200
;TYPE:SKIRT
G1 Z0.200
G1 F1500.000 E0.00000
G1 F1200.00000 X91.801 Y78.567 E0.00871
G1 X92.400 Y78.047 E0.01741
G1 X93.049 Y77.591 E0.02612
G1 X93.741 Y77.202 E0.03483
G1 X94.468 Y76.884 E0.04353
G1 X95.224 Y76.641 E0.05225
G1 X96.000 Y76.476 E0.06095
G1 X96.788 Y76.390 E0.06965
G1 X97.251 Y76.376 E0.07473
G1 X125.749 Y76.376 E0.38744
G1 X126.541 Y76.416 E0.39614
G1 X127.326 Y76.535 E0.40485
G1 X128.094 Y76.733 E0.41355
G1 X128.839 Y77.008 E0.42227
G1 X129.552 Y77.355 E0.43097
G1 X130.227 Y77.773 E0.43968
G1 X130.856 Y78.256 E0.44838
G1 X131.433 Y78.801 E0.45709
G1 X131.953 Y79.400 E0.46580
G1 X132.409 Y80.049 E0.47450
G1 X132.798 Y80.741 E0.48321
G1 X133.116 Y81.468 E0.49192
G1 X133.359 Y82.224 E0.50063
G1 X133.524 Y83.000 E0.50933
G1 X133.610 Y83.788 E0.51803
G1 X133.624 Y84.251 E0.52312
G1 X133.624 Y138.749 E1.12111
G1 X133.584 Y139.541 E1.12981
G1 X133.465 Y140.326 E1.13853
G1 X133.267 Y141.094 E1.14723
G1 X132.992 Y141.839 E1.15594
G1 X132.645 Y142.552 E1.16464
G1 X132.227 Y143.227 E1.17336
G1 X131.744 Y143.856 E1.18206
G1 X131.199 Y144.433 E1.19077
G1 X130.600 Y144.953 E1.19947
G1 X129.951 Y145.409 E1.20817
G1 X129.259 Y145.798 E1.21688
G1 X128.532 Y146.116 E1.22559
G1 X127.776 Y146.359 E1.23431
G1 X127.000 Y146.524 E1.24301
G1 X126.212 Y146.610 E1.25171
G1 X125.749 Y146.624 E1.25679
G1 X97.251 Y146.624 E1.56949
G1 X96.459 Y146.584 E1.57820
G1 X95.674 Y146.465 E1.58691
G1 X94.906 Y146.267 E1.59561
G1 X94.161 Y145.992 E1.60432
G1 X93.448 Y145.645 E1.61303
G1 X92.773 Y145.227 E1.62174
G1 X92.144 Y144.744 E1.63044
G1 X91.567 Y144.199 E1.63915
G1 X91.047 Y143.600 E1.64785
G1 X90.591 Y142.951 E1.65656
G1 X90.202 Y142.259 E1.66527
G1 X89.884 Y141.532 E1.67397
G1 X89.641 Y140.776 E1.68269
G1 X89.476 Y140.000 E1.69139
G1 X89.390 Y139.212 E1.70009
G1 X89.376 Y138.749 E1.70517
G1 X89.376 Y84.251 E2.30317
G1 X89.416 Y83.459 E2.31187
G1 X89.535 Y82.674 E2.32058
G1 X89.733 Y81.906 E2.32929
G1 X90.008 Y81.161 E2.33800
G1 X90.355 Y80.448 E2.34670
G1 X90.773 Y79.773 E2.35541
G1 X91.256 Y79.144 E2.36412
G0 F9000.00000 X91.603 Y79.279
G1 F1200.000 X92.145 Y78.724 E2.37263
G1 X92.741 Y78.227 E2.38114
G1 X93.385 Y77.795 E2.38965
G1 X94.070 Y77.432 E2.39816
G1 X94.789 Y77.140 E2.40667
G1 X95.534 Y76.925 E2.41518
G1 X96.297 Y76.787 E2.42369
G1 X97.251 Y76.726 E2.43418
G1 X125.749 Y76.726 E2.74688
G1 X126.524 Y76.766 E2.75540
G1 X127.290 Y76.885 E2.76390
G1 X128.040 Y77.083 E2.77242
G1 X128.766 Y77.357 E2.78093
G1 X129.459 Y77.704 E2.78943
G1 X130.113 Y78.121 E2.79795
G1 X130.721 Y78.603 E2.80646
G1 X131.276 Y79.145 E2.81497
G1 X131.773 Y79.741 E2.82349
G1 X132.205 Y80.385 E2.83200
G1 X132.568 Y81.070 E2.84050
G1 X132.860 Y81.789 E2.84902
G1 X133.075 Y82.534 E2.85753
G1 X133.213 Y83.297 E2.86603
G1 X133.274 Y84.251 E2.87652
G1 X133.274 Y138.749 E3.47452
G1 X133.234 Y139.524 E3.48304
G1 X133.115 Y140.290 E3.49154
G1 X132.917 Y141.040 E3.50005
G1 X132.643 Y141.766 E3.50857
G1 X132.296 Y142.459 E3.51707
G1 X131.879 Y143.113 E3.52558
G1 X131.397 Y143.721 E3.53410
G1 X130.855 Y144.276 E3.54261
G1 X130.259 Y144.773 E3.55112
G1 X129.615 Y145.205 E3.55963
G1 X128.930 Y145.568 E3.56814
G1 X128.211 Y145.860 E3.57666
G1 X127.466 Y146.075 E3.58516
G1 X126.703 Y146.213 E3.59367
G1 X125.749 Y146.274 E3.60416
G1 X97.251 Y146.274 E3.91686
G1 X96.476 Y146.234 E3.92538
G1 X95.710 Y146.115 E3.93389
G1 X94.960 Y145.917 E3.94240
G1 X94.234 Y145.643 E3.95091
G1 X93.541 Y145.296 E3.95942
G1 X92.887 Y144.879 E3.96793
G1 X92.279 Y144.397 E3.97644
G1 X91.724 Y143.855 E3.98495
G1 X91.227 Y143.259 E3.99347
G1 X90.795 Y142.615 E4.00198
G1 X90.432 Y141.930 E4.01048
G1 X90.140 Y141.211 E4.01900
G1 X89.925 Y140.466 E4.02751
G1 X89.787 Y139.703 E4.03602
G1 X89.726 Y138.749 E4.04651
G1 X89.726 Y84.251 E4.64450
G1 X89.766 Y83.476 E4.65302
G1 X89.885 Y82.710 E4.66152
G1 X90.083 Y81.960 E4.67003
G1 X90.357 Y81.234 E4.67855
G1 X90.704 Y80.541 E4.68705
G1 X91.121 Y79.887 E4.69556
G1 X91.603 Y79.279 E4.70408
G0 F9000.00000 X91.949 Y79.417
G1 F1200.000 X92.488 Y78.885 E4.71239
G1 X93.080 Y78.413 E4.72070
G1 X93.719 Y78.006 E4.72901
G1 X94.397 Y77.668 E4.73732
G1 X95.106 Y77.404 E4.74562
G1 X95.840 Y77.216 E4.75394
G1 X96.589 Y77.107 E4.76224
G1 X97.251 Y77.076 E4.76951
G1 X125.749 Y77.076 E5.08222
G1 X126.505 Y77.116 E5.09053
G1 X127.253 Y77.235 E5.09884
G1 X127.984 Y77.433 E5.10715
G1 X128.691 Y77.707 E5.11547
G1 X129.364 Y78.053 E5.12377
G1 X129.997 Y78.469 E5.13208
G1 X130.583 Y78.949 E5.14039
G1 X131.115 Y79.488 E5.14870
G1 X131.587 Y80.080 E5.15701
G1 X131.994 Y80.719 E5.16532
G1 X132.332 Y81.397 E5.17364
G1 X132.596 Y82.106 E5.18194
G1 X132.784 Y82.840 E5.19025
G1 X132.893 Y83.589 E5.19856
G1 X132.924 Y84.251 E5.20583
G1 X132.924 Y138.749 E5.80383
G1 X132.884 Y139.505 E5.81213
G1 X132.765 Y140.253 E5.82044
G1 X132.567 Y140.984 E5.82876
G1 X132.293 Y141.691 E5.83708
G1 X131.947 Y142.364 E5.84538
G1 X131.531 Y142.997 E5.85369
G1 X131.051 Y143.583 E5.86200
G1 X130.512 Y144.115 E5.87031
G1 X129.920 Y144.587 E5.87862
G1 X129.281 Y144.994 E5.88693
G1 X128.603 Y145.332 E5.89525
G1 X127.894 Y145.596 E5.90355
G1 X127.160 Y145.784 E5.91186
G1 X126.411 Y145.893 E5.92017
G1 X125.749 Y145.924 E5.92744
G1 X97.251 Y145.924 E6.24014
G1 X96.495 Y145.884 E6.24845
G1 X95.747 Y145.765 E6.25676
G1 X95.016 Y145.567 E6.26507
G1 X94.309 Y145.293 E6.27339
G1 X93.636 Y144.947 E6.28169
G1 X93.003 Y144.531 E6.29001
G1 X92.417 Y144.051 E6.29832
G1 X91.885 Y143.512 E6.30663
G1 X91.413 Y142.920 E6.31493
G1 X91.006 Y142.281 E6.32325
G1 X90.668 Y141.603 E6.33156
G1 X90.404 Y140.894 E6.33986
G1 X90.216 Y140.160 E6.34818
G1 X90.107 Y139.411 E6.35648
G1 X90.076 Y138.749 E6.36375
G1 X90.076 Y84.251 E6.96175
G1 X90.116 Y83.495 E6.97006
G1 X90.235 Y82.747 E6.97837
G1 X90.433 Y82.016 E6.98668
G1 X90.707 Y81.309 E6.99500
G1 X91.053 Y80.636 E7.00330
G1 X91.469 Y80.003 E7.01161
G1 X91.949 Y79.417 E7.01993
G0 F9000.00000 X92.294 Y79.559
G1 F1200.000 X92.830 Y79.051 E7.02803
G1 X93.418 Y78.604 E7.03613
G1 X94.051 Y78.223 E7.04424
G1 X94.721 Y77.912 E7.05235
G1 X95.421 Y77.676 E7.06045
G1 X96.142 Y77.517 E7.06855
G1 X96.877 Y77.436 E7.07667
G1 X97.251 Y77.426 E7.08077
G1 X125.749 Y77.426 E7.39348
G1 X126.487 Y77.466 E7.40159
G1 X127.215 Y77.585 E7.40968
G1 X127.927 Y77.783 E7.41779
G1 X128.613 Y78.056 E7.42589
G1 X129.266 Y78.402 E7.43400
G1 X129.878 Y78.816 E7.44211
G1 X130.441 Y79.294 E7.45021
G1 X130.949 Y79.830 E7.45831
G1 X131.396 Y80.418 E7.46642
G1 X131.777 Y81.051 E7.47453
G1 X132.088 Y81.721 E7.48263
G1 X132.324 Y82.421 E7.49074
G1 X132.483 Y83.142 E7.49884
G1 X132.564 Y83.877 E7.50695
G1 X132.574 Y84.251 E7.51106
G1 X132.574 Y138.749 E8.10905
G1 X132.534 Y139.487 E8.11716
G1 X132.415 Y140.215 E8.12526
G1 X132.217 Y140.927 E8.13337
G1 X131.944 Y141.613 E8.14147
G1 X131.598 Y142.266 E8.14958
G1 X131.184 Y142.878 E8.15769
G1 X130.706 Y143.441 E8.16579
G1 X130.170 Y143.949 E8.17389
G1 X129.582 Y144.396 E8.18200
G1 X128.949 Y144.777 E8.19010
G1 X128.279 Y145.088 E8.19821
G1 X127.579 Y145.324 E8.20632
G1 X126.858 Y145.483 E8.21442
G1 X126.123 Y145.564 E8.22253
G1 X125.749 Y145.574 E8.22664
G1 X97.251 Y145.574 E8.53934
G1 X96.513 Y145.534 E8.54745
G1 X95.785 Y145.415 E8.55554
G1 X95.073 Y145.217 E8.56365
G1 X94.387 Y144.944 E8.57175
G1 X93.734 Y144.598 E8.57986
G1 X93.122 Y144.184 E8.58797
G1 X92.559 Y143.706 E8.59607
G1 X92.051 Y143.170 E8.60418
G1 X91.604 Y142.582 E8.61228
G1 X91.223 Y141.949 E8.62039
G1 X90.912 Y141.279 E8.62849
G1 X90.676 Y140.579 E8.63660
G1 X90.517 Y139.858 E8.64470
G1 X90.436 Y139.123 E8.65282
G1 X90.426 Y138.749 E8.65692
G1 X90.426 Y84.251 E9.25492
G1 X90.466 Y83.513 E9.26303
G1 X90.585 Y82.785 E9.27112
G1 X90.783 Y82.073 E9.27923
G1 X91.056 Y81.387 E9.28733
G1 X91.402 Y80.734 E9.29544
G1 X91.816 Y80.122 E9.30355
G1 X92.294 Y79.559 E9.31165
G0 F9000.00000 X92.640 Y79.706
G1 F1200.000 X93.172 Y79.222 E9.31955
G1 X93.755 Y78.801 E9.32744
G1 X94.382 Y78.447 E9.33534
G1 X95.043 Y78.164 E9.34323
G1 X95.732 Y77.957 E9.35112
G1 X96.440 Y77.827 E9.35902
G1 X97.251 Y77.776 E9.36794
G1 X125.749 Y77.776 E9.68064
G1 X126.467 Y77.816 E9.68853
G1 X127.177 Y77.935 E9.69643
G1 X127.869 Y78.133 E9.70433
G1 X128.534 Y78.406 E9.71222
G1 X129.166 Y78.751 E9.72012
G1 X129.755 Y79.164 E9.72801
G1 X130.294 Y79.640 E9.73590
G1 X130.778 Y80.172 E9.74379
G1 X131.199 Y80.755 E9.75168
G1 X131.553 Y81.382 E9.75958
G1 X131.836 Y82.043 E9.76747
G1 X132.043 Y82.732 E9.77537
G1 X132.173 Y83.440 E9.78327
G1 X132.224 Y84.251 E9.79218
G1 X132.224 Y138.749 E10.39018
G1 X132.184 Y139.467 E10.39807
G1 X132.065 Y140.177 E10.40597
G1 X131.867 Y140.869 E10.41387
G1 X131.594 Y141.534 E10.42176
G1 X131.249 Y142.166 E10.42966
G1 X130.836 Y142.755 E10.43755
G1 X130.360 Y143.294 E10.44544
G1 X129.828 Y143.778 E10.45333
G1 X129.245 Y144.199 E10.46122
G1 X128.618 Y144.553 E10.46912
G1 X127.957 Y144.836 E10.47701
G1 X127.268 Y145.043 E10.48491
G1 X126.560 Y145.173 E10.49281
G1 X125.749 Y145.224 E10.50172
G1 X97.251 Y145.224 E10.81443
G1 X96.533 Y145.184 E10.82232
G1 X95.823 Y145.065 E10.83022
G1 X95.131 Y144.867 E10.83811
G1 X94.466 Y144.594 E10.84600
G1 X93.834 Y144.249 E10.85390
G1 X93.245 Y143.836 E10.86180
G1 X92.706 Y143.360 E10.86969
G1 X92.222 Y142.828 E10.87758
G1 X91.801 Y142.245 E10.88547
G1 X91.447 Y141.618 E10.89337
G1 X91.164 Y140.957 E10.90126
G1 X90.957 Y140.268 E10.90915
G1 X90.827 Y139.560 E10.91705
G1 X90.776 Y138.749 E10.92597
G1 X90.776 Y84.251 E11.52397
G1 X90.816 Y83.533 E11.53186
G1 X90.935 Y82.823 E11.53976
G1 X91.133 Y82.131 E11.54765
G1 X91.406 Y81.466 E11.55554
G1 X91.751 Y80.834 E11.56344
G1 X92.164 Y80.245 E11.57134
G1 X92.640 Y79.706 E11.57923
G0 F9000.00000 X92.984 Y79.857
G1 F1200.000 X93.513 Y79.399 E11.58691
G1 X94.091 Y79.004 E11.59459
G1 X94.710 Y78.678 E11.60226
G1 X95.362 Y78.424 E11.60994
G1 X96.039 Y78.247 E11.61762
G1 X96.732 Y78.148 E11.62530
G1 X97.251 Y78.126 E11.63100
G1 X125.749 Y78.126 E11.94370
G1 X126.448 Y78.166 E11.95139
G1 X127.137 Y78.285 E11.95906
G1 X127.808 Y78.483 E11.96674
G1 X128.453 Y78.755 E11.97442
G1 X129.062 Y79.099 E11.98209
G1 X129.628 Y79.511 E11.98977
G1 X130.143 Y79.984 E11.99745
G1 X130.601 Y80.513 E12.00512
G1 X130.996 Y81.091 E12.01281
G1 X131.322 Y81.710 E12.02048
G1 X131.576 Y82.362 E12.02816
G1 X131.753 Y83.039 E12.03584
G1 X131.852 Y83.732 E12.04352
G1 X131.874 Y84.251 E12.04922
G1 X131.874 Y138.749 E12.64722
G1 X131.834 Y139.448 E12.65490
G1 X131.715 Y140.137 E12.66257
G1 X131.517 Y140.808 E12.67025
G1 X131.245 Y141.453 E12.67793
G1 X130.901 Y142.062 E12.68560
G1 X130.489 Y142.628 E12.69329
G1 X130.016 Y143.143 E12.70096
G1 X129.487 Y143.601 E12.70864
G1 X128.909 Y143.996 E12.71632
G1 X128.290 Y144.322 E12.72400
G1 X127.638 Y144.576 E12.73167
G1 X126.961 Y144.753 E12.73935
G1 X126.268 Y144.852 E12.74703
G1 X125.749 Y144.874 E12.75273
G1 X97.251 Y144.874 E13.06544
G1 X96.552 Y144.834 E13.07312
G1 X95.863 Y144.715 E13.08079
G1 X95.192 Y144.517 E13.08847
G1 X94.547 Y144.245 E13.09615
G1 X93.938 Y143.901 E13.10382
G1 X93.372 Y143.489 E13.11151
G1 X92.857 Y143.016 E13.11918
G1 X92.399 Y142.487 E13.12686
G1 X92.004 Y141.909 E13.13454
G1 X91.678 Y141.290 E13.14221
G1 X91.424 Y140.638 E13.14989
G1 X91.247 Y139.961 E13.15757
G1 X91.148 Y139.268 E13.16525
G1 X91.126 Y138.749 E13.17095
G1 X91.126 Y84.251 E13.76895
G1 X91.166 Y83.552 E13.77663
G1 X91.285 Y82.863 E13.78430
G1 X91.483 Y82.192 E13.79198
G1 X91.755 Y81.547 E13.79966
G1 X92.099 Y80.938 E13.80734
G1 X92.511 Y80.372 E13.81502
G1 X92.984 Y79.857 E13.82269
G0 F9000.00000 X93.328 Y80.013
G1 F1200.000 X93.853 Y79.582 E13.83014
G1 X94.425 Y79.215 E13.83760
G1 X95.036 Y78.918 E13.84506
G1 X95.678 Y78.694 E13.85252
G1 X96.341 Y78.548 E13.85997
G1 X97.251 Y78.476 E13.86998
G1 X125.749 Y78.476 E14.18269
G1 X126.427 Y78.516 E14.19014
G1 X127.096 Y78.635 E14.19760
G1 X127.746 Y78.832 E14.20505
G1 X128.369 Y79.104 E14.21251
G1 X128.955 Y79.448 E14.21996
G1 X129.497 Y79.858 E14.22742
G1 X129.987 Y80.328 E14.23487
G1 X130.418 Y80.853 E14.24232
G1 X130.785 Y81.425 E14.24978
G1 X131.082 Y82.036 E14.25724
G1 X131.306 Y82.678 E14.26470
G1 X131.452 Y83.341 E14.27215
G1 X131.524 Y84.251 E14.28216
G1 X131.524 Y138.749 E14.88016
G1 X131.484 Y139.427 E14.88761
G1 X131.365 Y140.096 E14.89507
G1 X131.168 Y140.746 E14.90252
G1 X130.896 Y141.369 E14.90998
G1 X130.552 Y141.955 E14.91744
G1 X130.142 Y142.497 E14.92489
G1 X129.672 Y142.987 E14.93234
G1 X129.147 Y143.418 E14.93980
G1 X128.575 Y143.785 E14.94725
G1 X127.964 Y144.082 E14.95471
G1 X127.322 Y144.306 E14.96217
G1 X126.659 Y144.452 E14.96962
G1 X125.749 Y144.524 E14.97964
G1 X97.251 Y144.524 E15.29234
G1 X96.573 Y144.484 E15.29979
G1 X95.904 Y144.365 E15.30725
G1 X95.254 Y144.168 E15.31470
G1 X94.631 Y143.896 E15.32216
G1 X94.045 Y143.552 E15.32962
G1 X93.503 Y143.142 E15.33707
G1 X93.013 Y142.672 E15.34452
G1 X92.582 Y142.147 E15.35198
G1 X92.215 Y141.575 E15.35943
G1 X91.918 Y140.964 E15.36689
G1 X91.694 Y140.322 E15.37435
G1 X91.548 Y139.659 E15.38180
G1 X91.476 Y138.749 E15.39182
G1 X91.476 Y84.251 E15.98981
G1 X91.516 Y83.573 E15.99726
G1 X91.635 Y82.904 E16.00472
G1 X91.832 Y82.254 E16.01217
G1 X92.104 Y81.631 E16.01963
G1 X92.448 Y81.045 E16.02709
G1 X92.858 Y80.503 E16.03455
G1 X93.328 Y80.013 E16.04200
G0 F9000.00000 X93.671 Y80.175
G1 F1200.000 X94.192 Y79.771 E16.04923
G1 X94.757 Y79.433 E16.05645
G1 X95.359 Y79.167 E16.06368
G1 X95.989 Y78.975 E16.07090
G1 X96.637 Y78.861 E16.07812
G1 X97.251 Y78.826 E16.08487
G1 X125.749 Y78.826 E16.39757
G1 X126.406 Y78.866 E16.40480
G1 X127.054 Y78.985 E16.41203
G1 X127.682 Y79.182 E16.41925
G1 X128.282 Y79.454 E16.42648
G1 X128.845 Y79.796 E16.43371
G1 X129.362 Y80.204 E16.44093
G1 X129.825 Y80.671 E16.44815
G1 X130.229 Y81.192 E16.45538
G1 X130.567 Y81.757 E16.46261
G1 X130.833 Y82.359 E16.46983
G1 X131.025 Y82.989 E16.47705
G1 X131.139 Y83.637 E16.48427
G1 X131.174 Y84.251 E16.49102
G1 X131.174 Y138.749 E17.08902
G1 X131.134 Y139.406 E17.09624
G1 X131.015 Y140.054 E17.10347
G1 X130.818 Y140.682 E17.11069
G1 X130.546 Y141.282 E17.11792
G1 X130.204 Y141.845 E17.12515
G1 X129.796 Y142.362 E17.13238
G1 X129.329 Y142.825 E17.13959
G1 X128.808 Y143.229 E17.14683
G1 X128.243 Y143.567 E17.15405
G1 X127.641 Y143.833 E17.16127
G1 X127.011 Y144.025 E17.16850
G1 X126.363 Y144.139 E17.17572
G1 X125.749 Y144.174 E17.18247
G1 X97.251 Y144.174 E17.49517
G1 X96.594 Y144.134 E17.50239
G1 X95.946 Y144.015 E17.50962
G1 X95.318 Y143.818 E17.51685
